src/assets/svgs/block.svg

<svg width="199" height="199" viewBox="0 0 199 199" fill="none" xmlns="http://www.w3.org/2000/svg">
<path d="M19.116 54C72.576 54 126.036 54 181.116 54C181.116 84.36 181.116 114.72 181.116 146C140.782 146.04 140.782 146.04 123.934 146.049C112.282 146.055 100.63 146.062 88.9781 146.075C80.4935 146.085 72.009 146.092 63.5244 146.094C59.029 146.095 54.5337 146.098 50.0383 146.106C45.8121 146.112 41.5859 146.115 37.3598 146.113C35.8041 146.113 34.2484 146.115 32.6927 146.119C30.5779 146.124 28.4632 146.123 26.3485 146.12C25.1621 146.121 23.9758 146.122 22.7535 146.123C20.116 146 20.116 146 19.116 145C19.0208 142.17 18.9905 139.364 19.0025 136.533C19.0023 135.18 19.0023 135.18 19.0021 133.799C19.0029 130.865 19.0105 127.93 19.0184 124.996C19.0198 123.19 19.0208 121.384 19.0214 119.578C19.0267 112.865 19.0406 106.151 19.0535 99.4375C19.0741 84.4431 19.0948 69.4487 19.116 54ZM31.116 66C31.116 88.11 31.116 110.22 31.116 133C76.326 133 121.536 133 168.116 133C168.116 110.89 168.116 88.78 168.116 66C122.906 66 77.696 66 31.116 66Z" fill="url(#paint0_linear_4723_478)"/>
<path d="M109.079 78.8706C110.666 78.8659 110.666 78.8659 112.284 78.8611C114.011 78.8641 114.011 78.8641 115.772 78.8672C117.531 78.8658 117.531 78.8658 119.326 78.8643C121.811 78.8636 124.296 78.8655 126.781 78.8697C130.599 78.875 134.418 78.8697 138.237 78.8633C140.645 78.864 143.052 78.8653 145.46 78.8672C147.186 78.8642 147.186 78.8642 148.948 78.8611C150.005 78.8642 151.063 78.8674 152.153 78.8706C153.558 78.8718 153.558 78.8718 154.99 78.873C157.116 79 157.116 79 158.116 80C158.205 82.9571 158.231 85.8907 158.214 88.8477C158.212 89.7341 158.211 90.6205 158.209 91.5338C158.204 94.3768 158.191 97.2196 158.178 100.063C158.173 101.985 158.169 103.908 158.165 105.83C158.154 110.553 158.136 115.277 158.116 120C150.444 120.025 142.772 120.043 135.1 120.055C132.487 120.06 129.875 120.067 127.263 120.075C123.517 120.088 119.772 120.093 116.026 120.098C114.85 120.103 113.674 120.108 112.462 120.113C111.381 120.113 110.3 120.113 109.187 120.114C108.229 120.116 107.272 120.118 106.286 120.12C104.116 120 104.116 120 103.116 119C103.015 116.127 102.976 113.279 102.983 110.406C102.982 109.544 102.981 108.683 102.98 107.795C102.98 105.969 102.981 104.143 102.986 102.317C102.991 99.512 102.986 96.7073 102.979 93.9024C102.98 92.1328 102.981 90.3633 102.983 88.5938C102.981 87.749 102.979 86.9042 102.977 86.0338C103.006 78.8758 103.006 78.8758 109.079 78.8706ZM114.116 90C114.116 96.27 114.116 102.54 114.116 109C125.006 109 135.896 109 147.116 109C147.116 102.73 147.116 96.46 147.116 90C136.226 90 125.336 90 114.116 90Z" fill="url(#paint1_linear_4723_478)"/>
<path d="M47.0789 78.8706C48.6656 78.8659 48.6656 78.8659 50.2843 78.8611C52.0108 78.8641 52.0108 78.8641 53.7722 78.8672C55.5312 78.8658 55.5312 78.8658 57.3256 78.8643C59.8106 78.8636 62.2956 78.8655 64.7805 78.8697C68.5994 78.875 72.4182 78.8697 76.2371 78.8633C78.6446 78.864 81.0522 78.8653 83.4597 78.8672C85.1863 78.8642 85.1863 78.8642 86.9477 78.8611C88.0055 78.8642 89.0633 78.8674 90.1531 78.8706C91.5576 78.8718 91.5576 78.8718 92.9904 78.873C95.116 79 95.116 79 96.116 80C96.2047 82.9571 96.2312 85.8907 96.2137 88.8477C96.2122 89.7341 96.2108 90.6205 96.2094 91.5338C96.2038 94.3768 96.1912 97.2196 96.1785 100.063C96.1735 101.985 96.1689 103.908 96.1648 105.83C96.1538 110.553 96.1365 115.277 96.116 120C88.4439 120.025 80.7718 120.043 73.0996 120.055C70.4873 120.06 67.875 120.067 65.2627 120.075C61.5172 120.088 57.7717 120.093 54.0262 120.098C52.8501 120.103 51.6741 120.108 50.4624 120.113C49.3814 120.113 48.3004 120.113 47.1866 120.114C46.2295 120.116 45.2724 120.118 44.2863 120.12C42.116 120 42.116 120 41.116 119C41.0149 116.127 40.9763 113.279 40.9832 110.406C40.9822 109.544 40.9813 108.683 40.9803 107.795C40.9796 105.969 40.9815 104.143 40.9856 102.317C40.991 99.512 40.9857 96.7073 40.9793 93.9024C40.9799 92.1328 40.9812 90.3633 40.9832 88.5938C40.9812 87.749 40.9791 86.9042 40.9771 86.0338C41.0061 78.8758 41.0061 78.8758 47.0789 78.8706ZM52.116 90C52.116 96.27 52.116 102.54 52.116 109C63.006 109 73.896 109 85.116 109C85.116 102.73 85.116 96.46 85.116 90C74.226 90 63.336 90 52.116 90Z" fill="url(#paint2_linear_4723_478)"/>
<defs>
<linearGradient id="paint0_linear_4723_478" x1="21" y1="110.5" x2="241.5" y2="124.5" gradientUnits="userSpaceOnUse">
<stop stop-color="#555451"/>
<stop offset="1" stop-color="#8D8B84"/>
</linearGradient>
<linearGradient id="paint1_linear_4723_478" x1="103.659" y1="104.166" x2="178.922" y2="107.802" gradientUnits="userSpaceOnUse">
<stop stop-color="#555451"/>
<stop offset="1" stop-color="#8D8B84"/>
</linearGradient>
<linearGradient id="paint2_linear_4723_478" x1="41.6586" y1="104.166" x2="116.922" y2="107.802" gradientUnits="userSpaceOnUse">
<stop stop-color="#555451"/>
<stop offset="1" stop-color="#8D8B84"/>
</linearGradient>
</defs>
</svg>

<svg width="199" height="199" fill="none" xmlns="http://www.w3.org/2000/svg"><path d="M19.116 54h162v92c-40.334.04-40.334.04-57.182.049-11.652.006-23.304.013-34.956.026-8.484.01-16.969.017-25.454.019-4.495.001-8.99.004-13.486.012-4.226.006-8.452.009-12.678.007-1.556 0-3.112.002-4.667.006-2.115.005-4.23.004-6.344.001l-3.596.003C20.116 146 20.116 146 19.116 145a222.97 222.97 0 0 1-.113-8.467v-2.734c0-2.934.008-5.869.015-8.803l.003-5.418c.006-6.713.02-13.427.032-20.14L19.116 54Zm12 12v67h137V66h-137Z" fill="url(#a)"/><path d="m109.079 78.87 3.205-.009 3.488.006 3.554-.003c2.485 0 4.97.001 7.455.006 3.818.005 7.637 0 11.456-.007l7.223.004 3.488-.006 3.205.01 2.837.002c2.126.127 2.126.127 3.126 1.127.089 2.957.115 5.89.098 8.848l-.005 2.686c-.005 2.843-.018 5.686-.031 8.529l-.013 5.767c-.011 4.723-.029 9.447-.049 14.17-7.672.025-15.344.043-23.016.055-2.613.005-5.225.012-7.837.02-3.746.013-7.491.018-11.237.023l-3.564.015-3.275.001-2.901.006c-2.17-.12-2.17-.12-3.17-1.12-.101-2.873-.14-5.721-.133-8.594l-.003-2.611c0-1.826.001-3.652.006-5.478.005-2.805 0-5.61-.007-8.415l.004-5.308-.006-2.56c.029-7.158.029-7.158 6.102-7.163ZM114.116 90v19h33V90h-33Z" fill="url(#b)"/><path d="m47.079 78.87 3.205-.009 3.488.006 3.554-.003c2.485 0 4.97.001 7.455.006 3.818.005 7.637 0 11.456-.007l7.223.004 3.488-.006 3.205.01 2.837.002C95.116 79 95.116 79 96.116 80c.089 2.957.115 5.89.098 8.848l-.005 2.686a3416.13 3416.13 0 0 1-.03 8.529l-.014 5.767c-.011 4.723-.029 9.447-.049 14.17-7.672.025-15.344.043-23.016.055-2.613.005-5.225.012-7.837.02-3.746.013-7.491.018-11.237.023l-3.564.015-3.275.001-2.9.006c-2.171-.12-2.171-.12-3.171-1.12-.101-2.873-.14-5.721-.133-8.594l-.003-2.611c0-1.826.002-3.652.006-5.478.005-2.805 0-5.61-.007-8.415 0-1.77.002-3.539.004-5.308l-.006-2.56c.03-7.158.03-7.158 6.102-7.163ZM52.116 90v19h33V90h-33Z" fill="url(#c)"/><defs><linearGradient id="a" x1="21" y1="110.5" x2="241.5" y2="124.5" gradientUnits="userSpaceOnUse"><stop stop-color="#555451"/><stop offset="1" stop-color="#8D8B84"/></linearGradient><linearGradient id="b" x1="103.659" y1="104.166" x2="178.922" y2="107.802" gradientUnits="userSpaceOnUse"><stop stop-color="#555451"/><stop offset="1" stop-color="#8D8B84"/></linearGradient><linearGradient id="c" x1="41.659" y1="104.166" x2="116.922" y2="107.802" gradientUnits="userSpaceOnUse"><stop stop-color="#555451"/><stop offset="1" stop-color="#8D8B84"/></linearGradient></defs></svg>
